lib/assets/icons/tabbar/dm_coins_active.svg

<svg fill="none" height="24" viewBox="0 0 24 24" width="24" xmlns="http://www.w3.org/2000/svg">
    <g fill="#383d3c">
        <path d="m8.5 6.25c4.1421 0 7.5-1.11929 7.5-2.5s-3.3579-2.5-7.5-2.5c-4.14214 0-7.5 1.11929-7.5 2.5s3.35786 2.5 7.5 2.5z"/>
        <path d="m8 15v1.2363 3.4527c0 .5875.5795 1.1289 1.55397 1.561 1.37123.6081 3.52473 1 5.94603 1 4.142 0 7.5-1.1467 7.5-2.561v-4.689"/>
        <path d="m1 3.75v4.93903c0 1.41427 3.358 2.56097 7.5 2.56097s7.5-1.1467 7.5-2.56097v-4.93903c0 1.38071-3.3579 2.5-7.5 2.5-4.14214 0-7.5-1.11929-7.5-2.5z"/>
        <path d="m1 8.68903v4.99997c0 1.3241 2.94353 2.4137 6.71813 2.5473h.28187v-1.2363c0-1.3807 3.3579-2.5 7.5-2.5.168 0 .3347.0018.5.0055v-1.286-2.53047c0 1.41427-3.358 2.56097-7.5 2.56097s-7.5-1.1467-7.5-2.56097z"/>
        <path d="m1 13.689v5c0 1.4143 3.358 2.561 7.5 2.561h1.05397c-.97447-.4321-1.55397-.9735-1.55397-1.561v-3.4527h-.28187c-3.7746-.1336-6.71813-1.2232-6.71813-2.5473z"/>
        <path d="m15.5 12.5c-4.1421 0-7.5 1.1193-7.5 2.5 0 1.4142 3.358 2.561 7.5 2.561s7.5-1.1468 7.5-2.561c0-1.3247-3.091-2.4088-7-2.4945-.1653-.0037-.332-.0055-.5-.0055z"/>
    </g>
    <path d="m1 3.75v14.939m0-14.939c0 1.38071 3.35786 2.5 7.5 2.5 4.1421 0 7.5-1.11929 7.5-2.5m-15 0c0-1.38071 3.35786-2.5 7.5-2.5 4.1421 0 7.5 1.11929 7.5 2.5m-15 0v4.93903m0 9.99997c0 1.4143 3.358 2.561 7.5 2.561h1.05397m-8.55397-2.561v-5m15-9.939v7.4695m0-7.4695v4.93903m-15 4.99997c0 1.3241 2.94353 2.4137 6.71813 2.5473h.28187m-7-2.5473v-4.99997m0 0c0 1.41427 3.358 2.56097 7.5 2.56097s7.5-1.1467 7.5-2.56097m0 0v2.53047m0 0v1.286m-8 2.4945c0-1.3807 3.3579-2.5 7.5-2.5.168 0 .3347.0018.5.0055m-8 2.4945c0 1.4142 3.358 2.561 7.5 2.561s7.5-1.1468 7.5-2.561m-15 0v1.2363m15-1.2363v4.689c0 1.4143-3.358 2.561-7.5 2.561-2.4213 0-4.5748-.3919-5.94603-1m13.44603-6.25c0-1.3247-3.091-2.4088-7-2.4945m-8 3.7308v3.4527c0 .5875.5795 1.1289 1.55397 1.561" stroke="#a5e1d2" stroke-linecap="round" stroke-linejoin="round" stroke-width="1.5"/>
</svg>

<svg width="24" height="24" viewBox="0 0 24 24" fill="none" xmlns="http://www.w3.org/2000/svg">
    <path d="M8.5 6.25C12.6421 6.25 16 5.13071 16 3.75C16 2.36929 12.6421 1.25 8.5 1.25C4.35786 1.25 1 2.36929 1 3.75C1 5.13071 4.35786 6.25 8.5 6.25Z" fill="#383D3C"/>
    <path d="M8 15V16.2363V19.689C8 20.2765 8.5795 20.8179 9.55397 21.25C10.9252 21.8581 13.0787 22.25 15.5 22.25C19.642 22.25 23 21.1033 23 19.689V15" fill="#383D3C"/>
    <path d="M1 3.75V8.68903C1 10.1033 4.358 11.25 8.5 11.25C12.642 11.25 16 10.1033 16 8.68903V3.75C16 5.13071 12.6421 6.25 8.5 6.25C4.35786 6.25 1 5.13071 1 3.75Z" fill="#383D3C"/>
    <path d="M1 8.68903V13.689C1 15.0131 3.94353 16.1027 7.71813 16.2363H8V15C8 13.6193 11.3579 12.5 15.5 12.5C15.668 12.5 15.8347 12.5018 16 12.5055V11.2195V8.68903C16 10.1033 12.642 11.25 8.5 11.25C4.358 11.25 1 10.1033 1 8.68903Z" fill="#383D3C"/>
    <path d="M1 13.689V18.689C1 20.1033 4.358 21.25 8.5 21.25H9.55397C8.5795 20.8179 8 20.2765 8 19.689V16.2363H7.71813C3.94353 16.1027 1 15.0131 1 13.689Z" fill="#383D3C"/>
    <path d="M15.5 12.5C11.3579 12.5 8 13.6193 8 15C8 16.4142 11.358 17.561 15.5 17.561C19.642 17.561 23 16.4142 23 15C23 13.6753 19.909 12.5912 16 12.5055C15.8347 12.5018 15.668 12.5 15.5 12.5Z" fill="#383D3C"/>
    <path d="M1 3.75V18.689M1 3.75C1 5.13071 4.35786 6.25 8.5 6.25C12.6421 6.25 16 5.13071 16 3.75M1 3.75C1 2.36929 4.35786 1.25 8.5 1.25C12.6421 1.25 16 2.36929 16 3.75M1 3.75V8.68903M1 18.689C1 20.1033 4.358 21.25 8.5 21.25H9.55397M1 18.689V13.689M16 3.75V11.2195M16 3.75V8.68903M1 13.689C1 15.0131 3.94353 16.1027 7.71813 16.2363H8M1 13.689V8.68903M1 8.68903C1 10.1033 4.358 11.25 8.5 11.25C12.642 11.25 16 10.1033 16 8.68903M16 8.68903V11.2195M16 11.2195V12.5055M8 15C8 13.6193 11.3579 12.5 15.5 12.5C15.668 12.5 15.8347 12.5018 16 12.5055M8 15C8 16.4142 11.358 17.561 15.5 17.561C19.642 17.561 23 16.4142 23 15M8 15V16.2363M23 15V19.689C23 21.1033 19.642 22.25 15.5 22.25C13.0787 22.25 10.9252 21.8581 9.55397 21.25M23 15C23 13.6753 19.909 12.5912 16 12.5055M8 16.2363V19.689C8 20.2765 8.5795 20.8179 9.55397 21.25" stroke="#A5E1D2" stroke-width="1.5" stroke-linecap="round" stroke-linejoin="round"/>
</svg>
